Newaita-dark/apps/scalable/gnome-software.svg

<?xml version="1.0" encoding="UTF-8"?>
<svg xmlns="http://www.w3.org/2000/svg" xmlns:xlink="http://www.w3.org/1999/xlink" width="512pt" height="512pt" viewBox="0 0 512 512" version="1.1">
<defs>
<linearGradient id="linear0" gradientUnits="userSpaceOnUse" x1="254" y1="233.5" x2="254" y2="254.666672" gradientTransform="matrix(1.000095,0,0,1.000095,-0.000061041,222.958789)">
<stop offset="0" style="stop-color:rgb(0%,0%,0%);stop-opacity:0.27451;"/>
<stop offset="1" style="stop-color:rgb(0%,0%,0%);stop-opacity:0;"/>
</linearGradient>
<radialGradient id="radial0" gradientUnits="userSpaceOnUse" cx="450.908936" cy="189.579361" fx="450.908936" fy="189.579361" r="21.166656" gradientTransform="matrix(0.00000278673,-1.250119,-2.250215,-0.00000162462,865.843403,1025.463549)">
<stop offset="0" style="stop-color:rgb(0%,0%,0%);stop-opacity:0.313725;"/>
<stop offset="0.222222" style="stop-color:rgb(0%,0%,0%);stop-opacity:0.27451;"/>
<stop offset="1" style="stop-color:rgb(0%,0%,0%);stop-opacity:0;"/>
</radialGradient>
<radialGradient id="radial1" gradientUnits="userSpaceOnUse" cx="450.908936" cy="189.579361" fx="450.908936" fy="189.579361" r="21.166656" gradientTransform="matrix(-0.00000278673,1.250119,2.250215,0.00000162462,-357.794846,-112.501434)">
<stop offset="0" style="stop-color:rgb(0%,0%,0%);stop-opacity:0.313725;"/>
<stop offset="0.222222" style="stop-color:rgb(0%,0%,0%);stop-opacity:0.27451;"/>
<stop offset="1" style="stop-color:rgb(0%,0%,0%);stop-opacity:0;"/>
</radialGradient>
<radialGradient id="radial2" gradientUnits="userSpaceOnUse" cx="450.908936" cy="189.579361" fx="450.908936" fy="189.579361" r="21.166656" gradientTransform="matrix(-0.00000278673,-1.250119,2.250215,-0.00000162462,-357.794846,1025.463549)">
<stop offset="0" style="stop-color:rgb(0%,0%,0%);stop-opacity:0.313725;"/>
<stop offset="0.222222" style="stop-color:rgb(0%,0%,0%);stop-opacity:0.27451;"/>
<stop offset="1" style="stop-color:rgb(0%,0%,0%);stop-opacity:0;"/>
</radialGradient>
<radialGradient id="radial3" gradientUnits="userSpaceOnUse" cx="450.908936" cy="189.579361" fx="450.908936" fy="189.579361" r="21.166656" gradientTransform="matrix(0.00000278673,1.250119,-2.250215,0.00000162462,865.843372,-112.501442)">
<stop offset="0" style="stop-color:rgb(0%,0%,0%);stop-opacity:0.313725;"/>
<stop offset="0.222222" style="stop-color:rgb(0%,0%,0%);stop-opacity:0.27451;"/>
<stop offset="1" style="stop-color:rgb(0%,0%,0%);stop-opacity:0;"/>
</radialGradient>
<linearGradient id="linear1" gradientUnits="userSpaceOnUse" x1="254" y1="-168.666656" x2="254" y2="-62.833332" gradientTransform="matrix(1,0,0,1,0,-23.8125)">
<stop offset="0" style="stop-color:rgb(89.803922%,45.098039%,45.098039%);stop-opacity:1;"/>
<stop offset="1" style="stop-color:rgb(93.72549%,32.54902%,31.372549%);stop-opacity:1;"/>
</linearGradient>
<linearGradient id="linear2" gradientUnits="userSpaceOnUse" x1="222.25" y1="-94.583336" x2="222.25" y2="233.5" gradientTransform="matrix(1.000095,0,0,1.000095,0,191.205757)">
<stop offset="0" style="stop-color:rgb(69.019608%,74.509804%,77.254902%);stop-opacity:1;"/>
<stop offset="1" style="stop-color:rgb(81.176471%,84.705882%,86.27451%);stop-opacity:1;"/>
</linearGradient>
<linearGradient id="linear3" gradientUnits="userSpaceOnUse" x1="880" y1="1695.117188" x2="880" y2="1295.117188" gradientTransform="matrix(0.264609,0,0,0.264609,0,-97.904948)">
<stop offset="0" style="stop-color:rgb(0%,0%,0%);stop-opacity:0.0784314;"/>
<stop offset="1" style="stop-color:rgb(0%,0%,0%);stop-opacity:0;"/>
</linearGradient>
<linearGradient id="linear4" gradientUnits="userSpaceOnUse" x1="254" y1="170" x2="254" y2="-20.5" gradientTransform="matrix(1,0,0,1,0,-23.8125)">
<stop offset="0" style="stop-color:rgb(93.72549%,32.54902%,31.372549%);stop-opacity:1;"/>
<stop offset="1" style="stop-color:rgb(89.803922%,45.098039%,45.098039%);stop-opacity:1;"/>
</linearGradient>
</defs>
<g id="surface1">
<path style=" stroke:none;fill-rule:nonzero;fill:url(#linear0);" d="M 63.507812 456.480469 L 444.542969 456.480469 L 444.542969 477.648438 L 63.507812 477.648438 Z M 63.507812 456.480469 "/>
<path style=" stroke:none;fill-rule:nonzero;fill:url(#radial0);" d="M 444.542969 456.480469 L 486.878906 456.480469 L 486.878906 435.3125 L 444.542969 435.3125 Z M 444.542969 456.480469 "/>
<path style=" stroke:none;fill-rule:nonzero;fill:url(#radial1);" d="M 63.507812 456.480469 L 21.167969 456.480469 L 21.167969 477.648438 L 63.507812 477.648438 Z M 63.507812 456.480469 "/>
<path style=" stroke:none;fill-rule:nonzero;fill:url(#radial2);" d="M 63.507812 456.480469 L 21.167969 456.480469 L 21.167969 435.3125 L 63.507812 435.3125 Z M 63.507812 456.480469 "/>
<path style=" stroke:none;fill-rule:nonzero;fill:url(#radial3);" d="M 444.542969 456.480469 L 486.878906 456.480469 L 486.878906 477.648438 L 444.542969 477.648438 Z M 444.542969 456.480469 "/>
<path style="fill-rule:nonzero;fill:url(#linear1);stroke-width:3;stroke-linecap:round;stroke-linejoin:round;stroke:rgb(12.941177%,12.941177%,12.941177%);stroke-opacity:1;stroke-miterlimit:4;" d="M 252.858666 -193.7989 C 244.933641 -193.670006 237.15704 -191.943608 229.935074 -188.904836 C 210.6791 -180.800141 194.582981 -164.579034 183.619184 -145.748801 C 172.655387 -126.914662 166.644243 -105.221421 170.057979 -84.981166 C 170.59699 -81.411195 173.02254 -78.407575 176.401123 -77.130353 C 179.779707 -75.849226 183.587937 -76.48979 186.357204 -78.809881 C 189.130376 -81.126066 190.438845 -84.758531 189.778752 -88.308973 C 187.439132 -102.167025 191.782467 -120.012977 200.906596 -135.687261 C 210.030724 -151.35764 223.759882 -164.606375 237.692145 -170.469096 C 251.624409 -176.331818 264.951261 -176.023253 279.113971 -164.407175 C 293.272775 -152.787191 308.05652 -128.105954 318.348505 -84.356226 C 319.129681 -80.837031 321.742713 -78.009176 325.187696 -76.954589 C 328.636586 -75.900002 332.382322 -76.778824 334.999259 -79.259056 C 337.612291 -81.743194 338.690313 -85.438154 337.819302 -88.933914 C 326.945341 -135.140439 311.185127 -163.965811 291.800259 -179.870542 C 279.684229 -189.810999 266.068342 -194.021535 252.858666 -193.7989 Z M 252.858666 -193.7989 " transform="matrix(1.000095,0,0,1.000095,0,215.020531)"/>
<path style=" stroke:none;fill-rule:nonzero;fill:url(#linear2);" d="M 52.921875 96.613281 L 455.125 96.613281 C 466.816406 96.613281 476.296875 106.089844 476.296875 117.78125 L 476.296875 435.3125 C 476.296875 447.003906 466.816406 456.480469 455.125 456.480469 L 52.921875 456.480469 C 41.230469 456.480469 31.753906 447.003906 31.753906 435.3125 L 31.753906 117.78125 C 31.753906 106.089844 41.230469 96.613281 52.921875 96.613281 Z M 52.921875 96.613281 "/>
<path style=" stroke:none;fill-rule:nonzero;fill:rgb(8.235294%,39.607844%,75.294119%);fill-opacity:0.588235;" d="M 406.058594 193.84375 C 402.667969 193.796875 398.703125 194.582031 394.097656 196.375 C 345.003906 215.472656 364.824219 293.660156 392.445312 282.914062 C 417.46875 273.179688 438.820312 194.328125 406.058594 193.84375 Z M 327.753906 236.246094 C 326.234375 236.277344 324.617188 236.601562 322.902344 237.261719 L 322.9375 237.269531 C 322.164062 237.570312 321.371094 237.960938 320.523438 238.375 C 294.054688 252.710938 322.167969 295.996094 337.320312 291.113281 C 350.9375 286.726562 347.84375 235.839844 327.753906 236.246094 Z M 284.210938 272.960938 C 283.304688 272.976562 282.390625 273.125 281.46875 273.414062 C 279.722656 273.96875 277.964844 275.03125 276.203125 276.699219 C 257.414062 294.582031 291.125 325.113281 302.660156 317.699219 C 312.546875 311.339844 299.863281 272.667969 284.210938 272.960938 Z M 402.613281 302.542969 C 394.1875 302.617188 384.59375 304.652344 374.714844 308.300781 L 374.734375 308.292969 C 335.695312 322.710938 292.175781 362.292969 298.835938 405.25 C 301.847656 424.679688 316.101562 443.078125 335.363281 456.472656 L 448.824219 456.472656 C 449.164062 456.472656 449.5 456.464844 449.835938 456.449219 C 462.894531 441.269531 470.625 419.125 466.703125 398.351562 C 462.273438 374.863281 413.472656 403.953125 420.972656 417.710938 C 429.980469 434.207031 418.480469 448.566406 399.59375 443.023438 C 339.449219 425.378906 455.425781 359.785156 428.367188 314.230469 C 423.5 306.035156 414.15625 302.445312 402.613281 302.542969 Z M 259.679688 318.167969 C 258.773438 318.167969 257.882812 318.308594 257.019531 318.609375 L 257.03125 318.605469 C 255.058594 319.289062 253.21875 320.800781 251.621094 323.332031 C 238.925781 343.65625 275.410156 366.628906 283.992188 357.527344 C 291.03125 350.058594 273.296875 318.167969 259.679688 318.164062 Z M 259.679688 318.167969 "/>
<path style=" stroke:none;fill-rule:nonzero;fill:rgb(0%,0%,0%);fill-opacity:0.235294;" d="M 52.921875 456.480469 C 41.195312 456.480469 31.753906 447.039062 31.753906 435.3125 L 31.753906 427.375 C 31.753906 439.101562 41.195312 448.542969 52.921875 448.542969 L 455.125 448.542969 C 466.855469 448.542969 476.296875 439.101562 476.296875 427.375 L 476.296875 435.3125 C 476.296875 447.039062 466.855469 456.480469 455.125 456.480469 Z M 52.921875 456.480469 "/>
<path style=" stroke:none;fill-rule:nonzero;fill:rgb(100%,100%,100%);fill-opacity:0.784314;" d="M 31.914062 111.175781 C 31.808594 112.042969 31.753906 112.925781 31.753906 113.824219 C 31.753906 114.265625 31.769531 114.703125 31.792969 115.136719 C 31.820312 114.695312 31.863281 114.257812 31.914062 113.824219 C 33.210938 124.292969 42.089844 132.347656 52.921875 132.347656 L 455.125 132.347656 C 465.957031 132.347656 474.839844 124.292969 476.132812 113.824219 C 476.1875 114.257812 476.226562 114.695312 476.253906 115.136719 C 476.28125 114.703125 476.296875 114.265625 476.296875 113.824219 C 476.296875 112.925781 476.238281 112.042969 476.132812 111.175781 C 474.839844 121.648438 465.957031 129.699219 455.125 129.699219 L 52.921875 129.699219 C 42.089844 129.699219 33.210938 121.648438 31.914062 111.175781 Z M 31.914062 111.175781 "/>
<path style=" stroke:none;fill-rule:nonzero;fill:rgb(12.941177%,12.941177%,12.941177%);fill-opacity:1;" d="M 52.921875 95.113281 C 42.34375 95.113281 33.464844 102.316406 30.960938 112.117188 C 30.898438 112.363281 30.898438 112.617188 30.960938 112.859375 C 33.464844 122.664062 42.34375 129.867188 52.921875 129.867188 L 455.125 129.867188 C 465.707031 129.867188 474.582031 122.664062 477.085938 112.859375 C 477.148438 112.617188 477.148438 112.363281 477.085938 112.117188 C 474.582031 102.316406 465.707031 95.113281 455.125 95.113281 Z M 52.921875 98.113281 L 455.125 98.113281 C 464.210938 98.113281 471.769531 104.183594 474.070312 112.488281 C 471.769531 120.796875 464.210938 126.867188 455.125 126.867188 L 52.921875 126.867188 C 43.839844 126.867188 36.277344 120.796875 33.980469 112.488281 C 36.277344 104.183594 43.839844 98.113281 52.921875 98.113281 Z M 52.921875 98.113281 "/>
<path style="fill-rule:nonzero;fill:rgb(0%,0%,0%);fill-opacity:0.313725;stroke-width:3;stroke-linecap:round;stroke-linejoin:round;stroke:rgb(12.941177%,12.941177%,12.941177%);stroke-opacity:1;stroke-miterlimit:4;" d="M 53.131212 -343.453459 C 64.824158 -343.45253 74.298727 -336.347903 74.300452 -327.579521 C 74.298428 -318.812234 64.82465 -311.704937 53.131704 -311.705865 C 41.442508 -311.705701 31.967939 -318.810328 31.966214 -327.578709 C 31.964489 -336.34709 41.442016 -343.453294 53.131212 -343.453459 Z M 53.131212 -343.453459 " transform="matrix(0.280026,0.960092,-0.960092,0.280026,0,215.020531)"/>
<path style="fill-rule:nonzero;fill:rgb(0%,0%,0%);fill-opacity:0.313725;stroke-width:3;stroke-linecap:round;stroke-linejoin:round;stroke:rgb(12.941177%,12.941177%,12.941177%);stroke-opacity:1;stroke-miterlimit:4;" d="M -89.078439 144.123835 C -77.385493 144.124763 -67.912018 151.23314 -67.909199 159.997772 C -67.911223 168.765059 -77.386095 175.876106 -89.07904 175.875177 C -100.768236 175.875342 -110.241712 168.766966 -110.243437 159.998584 C -110.245162 151.230203 -100.767635 144.124 -89.078439 144.123835 Z M -89.078439 144.123835 " transform="matrix(-0.280026,0.960092,0.960092,0.280026,0,215.020531)"/>
<path style=" stroke:none;fill-rule:nonzero;fill:rgb(0%,0%,0%);fill-opacity:0.196078;" d="M 52.921875 96.613281 C 43.023438 96.613281 34.753906 103.339844 32.414062 112.488281 C 34.753906 121.640625 43.023438 128.367188 52.921875 128.367188 L 455.125 128.367188 C 465.027344 128.367188 473.296875 121.640625 475.632812 112.488281 C 473.296875 103.339844 465.027344 96.613281 455.125 96.613281 Z M 52.921875 96.613281 "/>
<path style=" stroke:none;fill-rule:nonzero;fill:url(#linear3);" d="M 31.753906 244.792969 L 31.753906 329.46875 C 31.753906 341.195312 41.195312 350.636719 52.921875 350.636719 L 455.125 350.636719 C 466.855469 350.636719 476.296875 341.195312 476.296875 329.46875 L 476.296875 244.792969 Z M 31.753906 244.792969 "/>
<path style="fill-rule:nonzero;fill:url(#linear4);stroke-width:3;stroke-linecap:round;stroke-linejoin:round;stroke:rgb(12.941177%,12.941177%,12.941177%);stroke-opacity:1;stroke-miterlimit:4;" d="M 328.195221 -43.867905 C 323.062899 -43.918681 318.727376 -40.071392 318.161023 -34.970317 C 308.142449 45.104068 292.91734 91.201228 278.410913 111.835976 C 271.153794 122.151397 264.845802 125.736992 259.643174 126.45958 C 254.444452 127.186073 248.655942 125.291723 241.746446 119.639918 C 227.923547 108.33631 212.928885 82.541899 202.99624 53.392339 C 193.063595 24.242778 187.778943 -8.367389 189.880305 -32.876767 C 190.227928 -36.458456 188.622612 -39.946404 185.677581 -42.016519 C 182.73255 -44.086634 178.90479 -44.414728 175.651195 -42.875812 C 172.397599 -41.336896 170.222026 -38.173136 169.95252 -34.583635 C 167.491818 -5.879345 173.389692 28.515808 184.064454 59.844847 C 194.739216 91.169981 209.776842 119.327448 229.083592 135.122815 C 238.735014 143.016592 250.284693 147.957527 262.408535 146.266282 C 274.528471 144.575037 285.527421 136.485966 294.772632 123.338784 C 313.259148 97.04442 327.80854 49.037286 338.006784 -32.490085 C 338.401278 -35.337469 337.553703 -38.220007 335.674976 -40.399486 C 333.796249 -42.578965 331.069947 -43.840564 328.195221 -43.867905 Z M 328.195221 -43.867905 " transform="matrix(1.000095,0,0,1.000095,0,215.020531)"/>
<path style="fill-rule:nonzero;fill:rgb(0%,0%,0%);fill-opacity:0.313725;stroke-width:3;stroke-linecap:round;stroke-linejoin:round;stroke:rgb(12.941177%,12.941177%,12.941177%);stroke-opacity:1;stroke-miterlimit:4;" d="M 181.267846 -91.578192 C 177.303381 -91.652404 173.319386 -89.82836 170.01892 -86.64507 L 190.92708 -86.64507 C 189.235835 -88.773773 187.056356 -90.336124 184.466759 -91.089958 C 183.412173 -91.398522 182.341962 -91.558663 181.267846 -91.578192 Z M 181.267846 -91.578192 " transform="matrix(1.000095,0,0,1.000095,0,215.020531)"/>
<path style="fill-rule:nonzero;fill:rgb(0%,0%,0%);fill-opacity:0.313725;stroke-width:3;stroke-linecap:round;stroke-linejoin:round;stroke:rgb(12.941177%,12.941177%,12.941177%);stroke-opacity:1;stroke-miterlimit:4;" d="M 326.625059 -93.269437 C 325.554849 -93.249908 324.480732 -93.093673 323.426146 -92.785108 C 320.192079 -91.839886 317.590765 -89.636972 315.794062 -86.64507 L 339.459771 -86.64507 C 335.893705 -90.867323 331.245711 -93.359272 326.625059 -93.269437 Z M 326.625059 -93.269437 " transform="matrix(1.000095,0,0,1.000095,0,215.020531)"/>
<path style=" stroke:none;fill-rule:nonzero;fill:rgb(12.941177%,12.941177%,12.941177%);fill-opacity:1;" d="M 52.921875 95.113281 C 40.386719 95.113281 30.253906 105.25 30.253906 117.78125 L 30.253906 435.3125 C 30.253906 447.84375 40.386719 457.980469 52.921875 457.980469 L 455.128906 457.980469 C 467.660156 457.980469 477.796875 447.84375 477.796875 435.3125 L 477.796875 117.78125 C 477.796875 105.25 467.660156 95.113281 455.128906 95.113281 Z M 52.921875 98.113281 L 455.128906 98.113281 C 466.050781 98.113281 474.796875 106.859375 474.796875 117.78125 L 474.796875 435.3125 C 474.796875 446.234375 466.050781 454.980469 455.128906 454.980469 L 52.921875 454.980469 C 42 454.980469 33.253906 446.234375 33.253906 435.3125 L 33.253906 117.78125 C 33.253906 106.859375 42 98.113281 52.921875 98.113281 Z M 52.921875 98.113281 "/>
</g>
</svg>

<svg xmlns="http://www.w3.org/2000/svg" width="512pt" height="512pt" viewBox="0 0 512 512"><defs><linearGradient id="a" gradientUnits="userSpaceOnUse" x1="254" y1="233.5" x2="254" y2="254.667" gradientTransform="matrix(1.0001 0 0 1.0001 0 222.959)"><stop offset="0" stop-opacity=".275"/><stop offset="1" stop-opacity="0"/></linearGradient><radialGradient id="b" gradientUnits="userSpaceOnUse" cx="450.909" cy="189.579" fx="450.909" fy="189.579" r="21.167" gradientTransform="matrix(0 -1.25012 -2.25021 0 865.843 1025.464)"><stop offset="0" stop-opacity=".314"/><stop offset=".222" stop-opacity=".275"/><stop offset="1" stop-opacity="0"/></radialGradient><radialGradient id="c" gradientUnits="userSpaceOnUse" cx="450.909" cy="189.579" fx="450.909" fy="189.579" r="21.167" gradientTransform="matrix(0 1.25012 2.25021 0 -357.795 -112.501)"><stop offset="0" stop-opacity=".314"/><stop offset=".222" stop-opacity=".275"/><stop offset="1" stop-opacity="0"/></radialGradient><radialGradient id="d" gradientUnits="userSpaceOnUse" cx="450.909" cy="189.579" fx="450.909" fy="189.579" r="21.167" gradientTransform="matrix(0 -1.25012 2.25021 0 -357.795 1025.464)"><stop offset="0" stop-opacity=".314"/><stop offset=".222" stop-opacity=".275"/><stop offset="1" stop-opacity="0"/></radialGradient><radialGradient id="e" gradientUnits="userSpaceOnUse" cx="450.909" cy="189.579" fx="450.909" fy="189.579" r="21.167" gradientTransform="matrix(0 1.25012 -2.25021 0 865.843 -112.501)"><stop offset="0" stop-opacity=".314"/><stop offset=".222" stop-opacity=".275"/><stop offset="1" stop-opacity="0"/></radialGradient><linearGradient id="f" gradientUnits="userSpaceOnUse" x1="254" y1="-168.667" x2="254" y2="-62.833" gradientTransform="translate(0 -23.813)"><stop offset="0" stop-color="#e57373"/><stop offset="1" stop-color="#ef5350"/></linearGradient><linearGradient id="g" gradientUnits="userSpaceOnUse" x1="222.25" y1="-94.583" x2="222.25" y2="233.5" gradientTransform="matrix(1.0001 0 0 1.0001 0 191.206)"><stop offset="0" stop-color="#b0bec5"/><stop offset="1" stop-color="#cfd8dc"/></linearGradient><linearGradient id="h" gradientUnits="userSpaceOnUse" x1="880" y1="1695.117" x2="880" y2="1295.117" gradientTransform="matrix(.2646 0 0 .2646 0 -97.905)"><stop offset="0" stop-opacity=".078"/><stop offset="1" stop-opacity="0"/></linearGradient><linearGradient id="i" gradientUnits="userSpaceOnUse" x1="254" y1="170" x2="254" y2="-20.5" gradientTransform="translate(0 -23.813)"><stop offset="0" stop-color="#ef5350"/><stop offset="1" stop-color="#e57373"/></linearGradient></defs><path d="M63.508 456.48h381.035v21.168H63.508zm0 0" fill="url(#a)"/><path d="M444.543 456.48h42.336v-21.168h-42.336zm0 0" fill="url(#b)"/><path d="M63.508 456.48h-42.34v21.168h42.34zm0 0" fill="url(#c)"/><path d="M63.508 456.48h-42.34v-21.168h42.34zm0 0" fill="url(#d)"/><path d="M444.543 456.48h42.336v21.168h-42.336zm0 0" fill="url(#e)"/><path d="M252.859-193.799c-7.925.129-15.702 1.855-22.924 4.894-19.256 8.105-35.352 24.326-46.316 43.156-10.964 18.834-16.975 40.528-13.561 60.768a9.988 9.988 0 0 0 6.343 7.85 9.989 9.989 0 0 0 9.956-1.679 9.998 9.998 0 0 0 3.422-9.499c-2.34-13.858 2.003-31.704 11.128-47.378 9.124-15.67 22.853-28.92 36.785-34.782 13.932-5.863 27.26-5.554 41.422 6.062 14.159 11.62 28.943 36.301 39.235 80.05a10.005 10.005 0 0 0 16.65 5.097 10.011 10.011 0 0 0 2.82-9.674c-10.874-46.206-26.634-75.032-46.019-90.937-12.116-9.94-25.732-14.15-38.941-13.928zm0 0" transform="matrix(1.0001 0 0 1.0001 0 215.02)" fill="url(#f)" stroke-width="3" stroke-linecap="round" stroke-linejoin="round" stroke="#212121"/><path d="M52.922 96.613h402.203c11.691 0 21.172 9.477 21.172 21.168v317.531c0 11.692-9.48 21.168-21.172 21.168H52.922c-11.692 0-21.168-9.476-21.168-21.168v-317.53c0-11.692 9.476-21.169 21.168-21.169zm0 0" fill="url(#g)"/><path d="M406.059 193.844c-3.391-.047-7.356.738-11.961 2.531-49.094 19.098-29.274 97.285-1.653 86.54 25.024-9.735 46.375-88.587 13.614-89.071zm-78.305 42.402c-1.52.031-3.137.356-4.852 1.016l.036.008c-.774.3-1.567.69-2.415 1.105-26.468 14.336 1.645 57.621 16.797 52.738 13.618-4.386 10.524-55.273-9.566-54.867zm-43.543 36.715a9.683 9.683 0 0 0-2.742.453c-1.746.555-3.504 1.617-5.266 3.285-18.789 17.883 14.922 48.414 26.457 41 9.887-6.36-2.797-45.031-18.45-44.738zm118.402 29.582c-8.425.074-18.02 2.11-27.898 5.758l.02-.008c-39.04 14.418-82.56 54-75.9 96.957 3.013 19.43 17.267 37.828 36.528 51.223h113.461c.34 0 .676-.008 1.012-.024 13.059-15.18 20.789-37.324 16.867-58.097-4.43-23.489-53.23 5.601-45.73 19.359 9.007 16.496-2.493 30.855-21.38 25.312-60.144-17.644 55.833-83.238 28.774-128.793-4.867-8.195-14.21-11.785-25.754-11.687zM259.68 318.168c-.907 0-1.797.14-2.66.441l.011-.004c-1.972.684-3.812 2.196-5.41 4.727-12.695 20.324 23.79 43.297 32.371 34.195 7.04-7.468-10.695-39.359-24.312-39.363zm0 0" fill="#1565c0" fill-opacity=".588"/><path d="M52.922 456.48a21.122 21.122 0 0 1-21.168-21.168v-7.937a21.122 21.122 0 0 0 21.168 21.168h402.203a21.123 21.123 0 0 0 21.172-21.168v7.938a21.123 21.123 0 0 1-21.172 21.167zm0 0" fill-opacity=".235"/><path d="M31.914 111.176a21.917 21.917 0 0 0-.121 3.96c.027-.44.07-.878.121-1.312a21.122 21.122 0 0 0 21.008 18.524h402.203c10.832 0 19.715-8.055 21.008-18.524.055.434.094.871.12 1.313a20.844 20.844 0 0 0-.12-3.961c-1.293 10.472-10.176 18.523-21.008 18.523H52.922a21.12 21.12 0 0 1-21.008-18.523zm0 0" fill="#fff" fill-opacity=".784"/><path d="M52.922 95.113a22.637 22.637 0 0 0-21.961 17.004c-.063.246-.063.5 0 .742a22.636 22.636 0 0 0 21.96 17.008h402.204a22.633 22.633 0 0 0 21.96-17.008 1.492 1.492 0 0 0 0-.742 22.634 22.634 0 0 0-21.96-17.004zm0 3h402.203c9.086 0 16.645 6.07 18.945 14.375a19.597 19.597 0 0 1-18.945 14.38H52.922a19.592 19.592 0 0 1-18.942-14.38 19.593 19.593 0 0 1 18.942-14.375zm0 0" fill="#212121"/><path d="M344.625 169.855c3.273 11.227-.894 22.313-9.312 24.77-8.418 2.453-17.895-4.652-21.168-15.879-3.274-11.223.894-22.308 9.312-24.766 8.418-2.457 17.895 4.653 21.168 15.875zm0 0M163.316 169.855c-3.273 11.227.899 22.313 9.313 24.77 8.418 2.453 17.898-4.652 21.172-15.879 3.273-11.223-.899-22.309-9.317-24.766-8.418-2.457-17.894 4.653-21.168 15.875zm0 0" fill-opacity=".314" stroke-width="3.0003" stroke-linecap="round" stroke-linejoin="round" stroke="#212121"/><path d="M52.922 96.613a21.124 21.124 0 0 0-20.508 15.875 21.123 21.123 0 0 0 20.508 15.88h402.203a21.116 21.116 0 0 0 20.508-15.88 21.117 21.117 0 0 0-20.508-15.875zm0 0" fill-opacity=".196"/><path d="M31.754 244.793v84.676a21.122 21.122 0 0 0 21.168 21.168h402.203a21.123 21.123 0 0 0 21.172-21.168v-84.676zm0 0" fill="url(#h)"/><path d="M328.195-43.868a10 10 0 0 0-10.034 8.898c-10.019 80.074-25.244 126.171-39.75 146.806-7.257 10.315-13.565 13.901-18.768 14.624-5.199.726-10.987-1.168-17.897-6.82-13.822-11.304-28.817-37.098-38.75-66.248-9.932-29.15-15.217-61.76-13.116-86.269a9.99 9.99 0 0 0-4.202-9.14 9.998 9.998 0 0 0-10.027-.859 9.999 9.999 0 0 0-5.698 8.292c-2.461 28.705 3.437 63.1 14.111 94.429 10.675 31.325 25.713 59.482 45.02 75.278 9.651 7.894 21.2 12.835 33.325 11.143 12.12-1.691 23.118-9.78 32.364-22.927 18.486-26.295 33.036-74.302 43.234-155.83a10 10 0 0 0-9.812-11.378zm0 0" transform="matrix(1.0001 0 0 1.0001 0 215.02)" fill="url(#i)" stroke-width="3" stroke-linecap="round" stroke-linejoin="round" stroke="#212121"/><path d="M181.285 123.434c-3.965-.075-7.95 1.75-11.25 4.933h20.91c-1.691-2.129-3.87-3.691-6.46-4.445a12.146 12.146 0 0 0-3.2-.488zm0 0M326.656 121.742c-1.07.02-2.144.176-3.2.485-3.234.945-5.835 3.148-7.632 6.14h23.668c-3.566-4.222-8.215-6.715-12.836-6.625zm0 0" fill-opacity=".314" stroke-width="3.0002699999999995" stroke-linecap="round" stroke-linejoin="round" stroke="#212121"/><path d="M52.922 95.113c-12.535 0-22.668 10.137-22.668 22.668v317.531c0 12.532 10.133 22.668 22.668 22.668h402.207c12.531 0 22.668-10.136 22.668-22.668v-317.53c0-12.532-10.137-22.669-22.668-22.669zm0 3h402.207a19.592 19.592 0 0 1 19.668 19.668v317.531a19.592 19.592 0 0 1-19.668 19.668H52.922a19.592 19.592 0 0 1-19.668-19.668v-317.53a19.592 19.592 0 0 1 19.668-19.669zm0 0" fill="#212121"/></svg>
